X:861
T:Xiraldilla (CT 355)
R:Xiraldilla
C:Tradicional
S:Msica Tradicional Asturiana, (C) Tello & Tito. Asturies, 2001.
S:http://pagina.de/MusTradAst <telloytito@asturies.org>
N:Xiraldilla, transcrita en Llamo, ayuntamiento de Riosa.
A:Asturies
O:Llamo (Riosa)
Z:Cancioneru de Torner 355
M:3/8
L:1/8
Q:3/8=88
K:C
|GBB|BAB|cBA|G2 E|DBB|c2 A-|A2 z|GBB|BAB|cBA|G2 E|DBB|A2 G-|G2 z :||
W:Madre, yo quiero apuntarme,
W:que me gusta ser soldado;
W:aunque una bala me mate
W:quiero marchar voluntario.
W:
